X: 40824
T: Train Tracks
R: reel
M: 4/4
K: Dmajor
|:dA A2 FAdA|eA A2 cAeA|fAeA fAgA|edcB ABcA|
dA A2 FAdA|eA A2 cAeA|fAgA eAdA|cABc d4:|
|:dAAf fAdA|eAAg gAeA|fAeA fAgA|edcB ABcA|
dAAf fAdA|eAAg gAeA|fAgA eAdA|cABc d4:|

